alura/assets/api/cursos/estatistica-correlacao-regressao.svg

<svg xmlns="http://www.w3.org/2000/svg" viewBox="0 0 50 44"><g fill="none" fill-rule="evenodd"><path fill="#E56060" d="M48.5 16.6v7.9l-46.8 17-.2-8.6.3-13.9L48.9 2.8z"/><path fill="#FF6B6B" d="M48.9 3.9L1.5 21.1 1.4 7.8l.1-6.2 24.4-.3h22z"/><g fill="#444"><path fill-rule="nonzero" d="M.3.4v43.2h7.2c.7 0 1.2-.6 1.2-1.2s-.6-1.2-1.2-1.2H2.8v-9.7l11.3-10 7.3 7.3c.3.3.7.3 1 0l5.3-4.4c1 .9 2.3 1.4 3.7 1.4 1.4 0 2.7-.5 3.7-1.4l5.3 4.4c.1.1.3.2.5.2s.4-.1.5-.2l6.1-6.1v18.4H21.1c-.7 0-1.2.6-1.2 1.2s.6 1.2 1.2 1.2h28.6V.4H.3zm31 23.9c-2.2 0-3.9-1.8-3.9-3.9 0-2.1 1.8-3.9 3.9-3.9 2.1 0 3.9 1.8 3.9 3.9 0 2.1-1.8 3.9-3.9 3.9zm9.3 2.9l-4.7-3.9c.5-.8.8-1.8.8-2.9 0-3-2.4-5.4-5.4-5.4-3 0-5.4 2.4-5.4 5.4 0 1.1.3 2 .8 2.9L22 27.2l-7.3-7.3c-.3-.3-.7-.3-1 0L2.8 29.4V2.9h44.5v17.7l-6.7 6.6z"/><circle cx="31.3" cy="30.8" r="1"/><circle cx="31.3" cy="36.8" r="1"/><circle cx="31.3" cy="39.8" r="1"/><circle cx="31.3" cy="33.8" r="1"/><circle cx="31.3" cy="27.8" r="1"/><circle cx="31.3" cy="13.4" r="1"/><circle cx="31.3" cy="4.4" r="1"/><circle cx="31.3" cy="7.4" r="1"/><circle cx="31.3" cy="10.4" r="1"/></g></g></svg>

<?xml version="1.0" encoding="UTF-8"?>
<svg width="50px" height="44px" viewBox="0 0 50 44" version="1.1" xmlns="http://www.w3.org/2000/svg" xmlns:xlink="http://www.w3.org/1999/xlink">
    <!-- Generator: Sketch 52.5 (67469) - http://www.bohemiancoding.com/sketch -->
    <title>estatisticas-2</title>
    <desc>Created with Sketch.</desc>
    <g id="Page-1" stroke="none" stroke-width="1" fill="none" fill-rule="evenodd">
        <g id="estatisticas-2">
            <polygon id="Path" fill="#E56060" points="48.5 16.6 48.5 24.5 1.7 41.5 1.5 32.9 1.8 19 48.9 2.8"></polygon>
            <polygon id="Path" fill="#FF6B6B" points="48.9 3.9 1.5 21.1 1.4 7.8 1.5 1.6 25.9 1.3 47.9 1.3"></polygon>
            <g id="Group" fill="#444444">
                <path d="M0.3,0.4 L0.3,43.6 L7.5,43.6 C8.2,43.6 8.7,43 8.7,42.4 C8.7,41.8 8.1,41.2 7.5,41.2 L2.8,41.2 L2.8,31.5 L14.1,21.5 L21.4,28.8 C21.7,29.1 22.1,29.1 22.4,28.8 L27.7,24.4 C28.7,25.3 30,25.8 31.4,25.8 C32.8,25.8 34.1,25.3 35.1,24.4 L40.4,28.8 C40.5,28.9 40.7,29 40.9,29 C41.1,29 41.3,28.9 41.4,28.8 L47.5,22.7 L47.5,41.1 L21.1,41.1 C20.4,41.1 19.9,41.7 19.9,42.3 C19.9,42.9 20.5,43.5 21.1,43.5 L49.7,43.5 L49.7,0.4 L0.3,0.4 Z M31.3,24.3 C29.1,24.3 27.4,22.5 27.4,20.4 C27.4,18.3 29.2,16.5 31.3,16.5 C33.4,16.5 35.2,18.3 35.2,20.4 C35.2,22.5 33.4,24.3 31.3,24.3 Z M40.6,27.2 L35.9,23.3 C36.4,22.5 36.7,21.5 36.7,20.4 C36.7,17.4 34.3,15 31.3,15 C28.3,15 25.9,17.4 25.9,20.4 C25.9,21.5 26.2,22.4 26.7,23.3 L22,27.2 L14.7,19.9 C14.4,19.6 14,19.6 13.7,19.9 L2.8,29.4 L2.8,2.9 L47.3,2.9 L47.3,20.6 L40.6,27.2 Z" id="Shape" fill-rule="nonzero"></path>
                <circle id="Oval" cx="31.3" cy="30.8" r="1"></circle>
                <circle id="Oval" cx="31.3" cy="36.8" r="1"></circle>
                <circle id="Oval" cx="31.3" cy="39.8" r="1"></circle>
                <circle id="Oval" cx="31.3" cy="33.8" r="1"></circle>
                <circle id="Oval" cx="31.3" cy="27.8" r="1"></circle>
                <circle id="Oval" cx="31.3" cy="13.4" r="1"></circle>
                <circle id="Oval" cx="31.3" cy="4.4" r="1"></circle>
                <circle id="Oval" cx="31.3" cy="7.4" r="1"></circle>
                <circle id="Oval" cx="31.3" cy="10.4" r="1"></circle>
            </g>
        </g>
    </g>
</svg>
